UI/Travel-Transport-Tracking/SVG/truck_solid_24px.svg

<svg width="24" height="24" viewBox="0 0 24 24" fill="none" xmlns="http://www.w3.org/2000/svg">
<path d="M20 11V4C20 3.46957 19.7893 2.96086 19.4142 2.58579C19.0391 2.21071 18.5304 2 18 2H6C5.46957 2 4.96086 2.21071 4.58579 2.58579C4.21071 2.96086 4 3.46957 4 4V11H2V14H4V20C4 20.5304 4.21071 21.0391 4.58579 21.4142C4.96086 21.7893 5.46957 22 6 22H9C9.26522 22 9.51957 21.8946 9.70711 21.7071C9.89464 21.5196 10 21.2652 10 21V20H14V21C14 21.2652 14.1054 21.5196 14.2929 21.7071C14.4804 21.8946 14.7348 22 15 22H18C18.5304 22 19.0391 21.7893 19.4142 21.4142C19.7893 21.0391 20 20.5304 20 20V14H22V11H20ZM10 18H6V16H10V18ZM18 18H14V16H18V18ZM6 14L7 8H17L18 14H6Z" fill="#0F1621"/>
</svg>

<svg xmlns="http://www.w3.org/2000/svg" width="24" height="24" viewBox="0 0 24 24"><rect width="24" height="24" style="fill:none"/><path d="M20,11V4a2,2,0,0,0-2-2H6A2,2,0,0,0,4,4v7H2v3H4v6a2,2,0,0,0,2,2H9a1,1,0,0,0,1-1V20h4v1a1,1,0,0,0,1,1h3a2,2,0,0,0,2-2V14h2V11ZM10,18H6V16h4Zm8,0H14V16h4ZM6,14,7,8H17l1,6Z"/></svg>
